X:249
T: PFEIFCHEN WER HAT DICH ERFUNDEN
N: E1388
O: Europa, Mitteleuropa, Deutschland, Hessen, Giessen
R: Staende -, Soldaten -, Scherz - Lied
M: 4/4
L: 1/16
K: D
D2F2 | A4A4A4F2G2 | A8F4
B2A2 | G6F2G4B2A2 | F4z8
A2A2 | B4B4c4c4 | d8A4
c2A2 | G4c2B2A2A2G2A2 | F4z8
A2A2 | B4B4c4c4 | d8A4
c2A2 | G4c2B2A2A2G2A2 | F4z8
d2d2 | c2c2B2B2A2A2G2G2 | B2B2A3AA4
F3F | A2A2G3GG4G2G2 | B2A2A3AA4
d2d2 | c2c2B2B2A2A2G2G2 | B2B2A3AA4
(3A2A2A2 | B4(3B2B2B2c4(3c2c2c2 | d4z8

@@@ Tune index: 4933
